public/svg/hat.svg

<svg xmlns="http://www.w3.org/2000/svg" width="56" height="56" viewBox="0 0 56 56" fill="none">
<path d="M51.3337 21.0001L28.0003 11.6667L4.66699 21.0001L28.0003 30.3334L51.3337 21.0001ZM51.3337 21.0001V35.0001" stroke="#1B5BF7" stroke-width="3.5" stroke-linecap="round" stroke-linejoin="round"/>
<path d="M14 24.7334V37.3334C14 39.1899 15.475 40.9704 18.1005 42.2831C20.726 43.5959 24.287 44.3334 28 44.3334C31.713 44.3334 35.274 43.5959 37.8995 42.2831C40.525 40.9704 42 39.1899 42 37.3334V24.7334" stroke="#1B5BF7" stroke-width="3.5" stroke-linecap="round" stroke-linejoin="round"/>
</svg>

<svg xmlns="http://www.w3.org/2000/svg" width="56" height="56" fill="none" stroke="#1b5bf7" stroke-width="3.5" stroke-linecap="round" stroke-linejoin="round" xmlns:v="https://vecta.io/nano"><path d="M51.334 21L28 11.667 4.667 21 28 30.333 51.334 21zm0 0v14"/><path d="M14 24.733v12.6c0 1.857 1.475 3.637 4.101 4.95s6.186 2.05 9.9 2.05 7.274-.737 9.9-2.05 4.1-3.093 4.1-4.95v-12.6"/></svg>
